X:44
T:Cliffs of Moher
C:Traditional
M:6/8
R:jig
K:Ador
a3 bag | eaf ged | ({B}c2)A BAG | EFG Ace |
a3 bag | eaf ged | ({B}c2)A BAG | EFG A3 :|
|: ege dBA | ege dBA | GAB dBA | GAB dBd |
[1 ege dBA | ege dBA | GAB dBA | BAG A3 :|
[2 e3 dee | cee Bee | EFG AGF | EDB, A,3 |]

